X:45
T: Rosie Kelleher's
S: Mike Reynolds
Z: B.Black
R: reel
M: 4/4
L: 1/8
K: G
f | g3 d B G3 | AGBG AGEG | D G3 A3 B | cBAG FdcA |
g3 d B G3 | AGBG AGEG | DGEG E F3 | ABGF G3 :|
e | dGGF G3 e | dGeG e f3 | g3 d b a3 | gedc Bgge |
dGGF G3 e | dGeG e f3 | d G3 DGBG | AcBG AGEG |
B3 d B G3 | AGBG AGEG | DGEG E F3 | ABGF G3 :|
